static/assets/images/tokens/fxusd.svg

<svg width="256" height="256" viewBox="0 0 256 256" fill="none" xmlns="http://www.w3.org/2000/svg">
<path d="M256 127.973C256.022 153.311 248.515 178.084 234.432 199.154C220.349 220.224 200.323 236.642 176.893 246.327C153.524 255.962 127.823 258.469 103.031 253.533C78.2187 248.586 55.4296 236.405 37.5391 218.528C19.6487 200.651 7.45875 177.879 2.50777 153.085C-2.47958 128.274 0.00722669 102.543 9.65373 79.1441C19.3002 55.7454 35.6733 35.7302 56.7027 21.6292C75.9815 8.73211 98.4045 1.31085 121.576 0.15827C144.748 -0.994314 167.797 4.1651 188.263 15.0853C208.728 26.0054 225.84 42.2761 237.771 62.1591C249.701 82.042 256.002 104.79 256 127.973Z" fill="white"/>
<path d="M212.478 65.4079C191.846 39.1721 164.928 23.6691 122.811 23.6691C72.9417 23.6691 27.4063 68.4489 27.4063 116.329C27.4063 149.72 46.7558 165.7 68.1196 165.7C76.4271 165.945 84.6292 163.833 91.735 159.622C98.8407 155.411 104.546 149.279 108.161 141.969C108.298 141.727 108.368 141.454 108.365 141.178C108.363 140.901 108.287 140.63 108.146 140.391C108.005 140.151 107.803 139.951 107.56 139.81C107.317 139.668 107.04 139.591 106.758 139.584H77.9469C77.4014 139.569 76.8824 139.35 76.4965 138.973C76.1106 138.596 75.887 138.089 75.8716 137.556V117.164C75.8716 116.031 76.7872 115.137 77.9469 115.137H116.768C118.355 115.137 119.82 114.183 120.43 112.752C137.338 74.829 167.431 66.6005 184.705 65.229C193.556 64.5731 202.467 65.229 211.135 67.316C211.41 67.4899 211.745 67.55 212.065 67.4829C212.386 67.4158 212.666 67.2271 212.844 66.9582C213.022 66.6894 213.084 66.3625 213.015 66.0494C212.946 65.7363 212.753 65.4626 212.478 65.2887V65.4079Z" fill="#A6C15B"/>
<path d="M43.4597 190.446C64.4572 216.801 91.6808 231.827 133.554 231.707C183.423 231.29 228.897 186.152 228.592 138.093C228.348 104.702 208.998 88.722 187.452 88.9605C179.14 88.7683 170.948 90.929 163.865 95.1821C156.782 99.4352 151.11 105.599 147.532 112.931C147.39 113.182 147.32 113.465 147.328 113.752C147.336 114.039 147.422 114.318 147.578 114.561C147.733 114.804 147.952 115.002 148.213 115.135C148.473 115.268 148.765 115.33 149.058 115.316L177.746 115.137C178.906 115.137 179.822 116.031 179.822 117.164L180.005 137.616C180.005 137.885 179.949 138.151 179.841 138.398C179.732 138.645 179.573 138.867 179.372 139.051C179.172 139.236 178.935 139.378 178.677 139.47C178.418 139.561 178.143 139.6 177.868 139.584L139.108 139.882C138.342 139.889 137.595 140.112 136.956 140.524C136.317 140.937 135.813 141.522 135.507 142.207C118.782 180.309 88.6899 188.716 71.4157 190.267C62.5547 190.998 53.6309 190.333 44.9857 188.299C44.6942 188.136 44.3509 188.086 44.0235 188.159C43.696 188.231 43.4082 188.421 43.2168 188.69C43.0253 188.959 42.944 189.289 42.989 189.614C43.034 189.939 43.2019 190.236 43.4597 190.446Z" fill="#187F49"/>
</svg>

<svg xmlns="http://www.w3.org/2000/svg" fill="none" viewBox="0 0 256 256"><path fill="#fff" d="M256 127.973a127.9 127.9 0 0 1-21.568 71.181 128.04 128.04 0 0 1-57.539 47.173 128.14 128.14 0 0 1-73.862 7.206 128.1 128.1 0 0 1-65.492-35.005 127.93 127.93 0 0 1-35.031-65.443 127.87 127.87 0 0 1 7.146-73.94 128 128 0 0 1 47.049-57.516 128.14 128.14 0 0 1 131.56-6.544 128 128 0 0 1 49.508 47.074A127.9 127.9 0 0 1 256 127.973"/><path fill="#A6C15B" d="M212.478 65.408c-20.632-26.236-47.55-41.739-89.667-41.739-49.87 0-95.405 44.78-95.405 92.66 0 33.391 19.35 49.371 40.714 49.371a43.8 43.8 0 0 0 23.615-6.078c7.106-4.211 12.811-10.343 16.426-17.653a1.57 1.57 0 0 0-.015-1.578 1.6 1.6 0 0 0-.586-.581 1.7 1.7 0 0 0-.802-.226H77.947a2.16 2.16 0 0 1-1.45-.611 2.06 2.06 0 0 1-.625-1.417v-20.392c0-1.133.915-2.027 2.075-2.027h38.821c1.587 0 3.052-.954 3.662-2.385 16.908-37.923 47.001-46.151 64.275-47.523 8.851-.656 17.762 0 26.43 2.087.275.174.61.234.93.167s.601-.256.779-.525.24-.596.171-.909a1.2 1.2 0 0 0-.537-.76z"/><path fill="#187F49" d="M43.46 190.446c20.997 26.355 48.22 41.381 90.094 41.261 49.869-.417 95.343-45.555 95.038-93.614-.244-33.391-19.594-49.371-41.14-49.132a43.9 43.9 0 0 0-23.587 6.221c-7.083 4.253-12.755 10.417-16.333 17.749a1.58 1.58 0 0 0 .046 1.63c.155.243.374.441.635.574.26.133.552.195.845.181l28.688-.179c1.16 0 2.076.894 2.076 2.027l.183 20.452a1.95 1.95 0 0 1-.633 1.435 2.02 2.02 0 0 1-1.504.533l-38.76.298a4.04 4.04 0 0 0-2.152.642 3.9 3.9 0 0 0-1.449 1.683c-16.725 38.102-46.817 46.509-64.091 48.06a85 85 0 0 1-26.43-1.968 1.365 1.365 0 0 0-1.77.391 1.29 1.29 0 0 0 .244 1.756"/></svg>
